remix/Map/map-line.svg

<svg viewBox="0 0 24 24" fill="currentColor" xmlns="http://www.w3.org/2000/svg"><path d="M2 5L9 2L15 5L21.303 2.2987C21.5569 2.18992 21.8508 2.30749 21.9596 2.56131C21.9862 2.62355 22 2.69056 22 2.75827V19L15 22L9 19L2.69696 21.7013C2.44314 21.8101 2.14921 21.6925 2.04043 21.4387C2.01375 21.3765 2 21.3094 2 21.2417V5ZM14.9352 7.20369L8.93524 4.20369L4 6.31879V18.9669L9.06476 16.7963L15.0648 19.7963L20 17.6812V5.03308L14.9352 7.20369Z"/></svg>

<svg viewBox="0 0 24 24" xmlns="http://www.w3.org/2000/svg"><path fill="none" d="M0 0h24v24H0Z"/><path d="M2 5l7-3 6 3 6.3-2.701v-.001c.25-.11.54 0 .65.26 .02.06.04.12.04.19v16.241l-7 3 -6-3 -6.31 2.7H2.67c-.26.1-.55-.01-.66-.27 -.03-.07-.05-.13-.05-.2V4.97Zm12.935 2.2l-6-3 -4.94 2.11v12.648l5.06-2.17 6 3 4.93-2.12V5.01l-5.07 2.17Z"/></svg>
